X:1
T:Arnold von Bruck 1500 - 1554
T:Mitten wir im Leben sind
%%score [ 1 2 3 4 ]
L:1/8
Q:1/4=240
M:4/4
K:C
V:1 treble nm="Discantus"
V:2 treble nm="Altus"
V:3 treble nm="Tenor"
V:4 treble nm="Bassus"
V:1
"^C""^;""^ã" x8 | A8 G8 | A8 B8 | c4 A8 G2 F2 | E6 F2 G4 x4- | x4 G2 F2 G8 |[M:4/2] A4 c8 B2 A2 | %7
w: |Mit- ten|wir im|Le- * * *||||
w: |wen suchen|wir, der|Hil- * * *||||
 G6 A2 B2 c2 x4- | x2 A2 A8 ^G4 | A16 | z16 | B8 c8 | G8 A8 | G6 F2 E4 x4- | x2 E2 E8 D4 |1 E16 :|2 %16
w: |* * ben|sind||mit dem|Tod um-|fan * * *||gen;|
w: |* * fe|tu,||daß wir|Gnad er-|lan * * *|||
 E8 z8 || z4 C4 E8 | E8 G8 | G6 F2 E4 x4- | x2 C2 C8 B,4 | C16 | z4 C4 x8- | x4 A4 B8 | c4 c4 x8- | %25
w: gen?|Das bist|Du, Herr,|al * * lei||ne.|Uns reu-|et un-|* ser Mis-|
w: |||||||||
 x4 A4 x8- | x4 ^G2 ^F2 G8 | A16 | z8 B8 | c8 G8 | A8 G4 E4 | F8 E6 D2 | E2 F2 G4 E4 x4- | %33
w: |* * se-|tat,|die|Dich, Herr|er- zür *|||
w: ||||||||
 x2 E2 E8 D4 | E8 z8 | F16 | E8 E8 | D8 D8 | C16 | z8 F8 | E8 E8 | D8 D8 | C8 z8 | c16 | B8 B8 | %45
w: * * net|hat.|Hei-|li- ger|Her- re|Gott,|hei-|li- ger,|star- ker|Gott,|hei-|li- ger|
w: ||||||||||||
 A8 B8 | G8 z8 | c16 | B8 c8 | A8 B8 | c8 z8 | A16 | G8 A8 | B16 | c16 | B8 A8 | G8 F8 | %57
w: Her- re|Gott,|hei-|li- ger,|star- ker|Gott,|hei-|lig- ger,|barm-|her-|zi- ger|Hei *|
w: ||||||||||||
 E4 c6 B2 x4- | x2 G2 G6 F2 x4- | x2 E2 E8 D4 | E8 z8 | F8 F8 | E8 D8 | C8 z8 | D8 A8 | G8 F8 | %66
w: |||land,|Du e-|wi- ger|Gott,|Du e-|wi- ger|
w: |||||||||
 E8 z4 x4- | x4 c4 B8 | A8 x8- | x12 x4 | z4 A8 G4 | A8 B8 | c4 B2 A2 G4 B4 | A4 G8 ^F4 | %74
w: Gott, Du|e- wi-|ger Gott,||laß uns|nicht ver-|sin- * * * *||
w: ||||||||
"^Ù" x16- | x12 x4 | z8 z4 x4- | x4 B4 G8 | A8 x8- | x4 F4 E4 x4- | x2 E2 E8 D4 | E8 z8 | D8 A8 | %83
w: ken||in|des bit-|tern To-||* * des|Not.|Ky- rie~e-|
w: |||||||||
 G8 F8 | E6 F2 G8 | z4 A8 G4 | A6 G2 F4 E4 | z16 | D8 A8 | G8 F8 | E6 F2 G4 E4 | F8 G4 A4 | %92
w: le- i-|son, * *|Chri- ste~e-|lei- * i- son,||Ky- rie~e-|le- i-|son, * * Ky-|rie~e- le- i-|
w: |||||||||
 B8 E4 x4- | x2 E2 E8 D4 |"E" x16- | x16 | x16 | x16 |] %98
w: son, e- le-|* * i-|son.||||
w: ||||||
V:2
"^C""^;""^ã" x8 | z16 | z8 D8 | C8 D8 | E16 | z8 E8 |[M:4/2][K:treble-8] c8 A8 | E16 | z8 e8 | %9
w: ||Mit-|ten wir|im|Le-|ben *|sind|mit|
w: ||Wen|suchen wir|der|Hil-|fe *|tu,|daß|
 c4 A2 B2 c2 d2 e4 | d4 B6 A2 x4- | x4 ^G4 A8 | z4 e6 d2 x4- | x4 B4 c4 d4 | B4 c4 A8 |1 z16 :|2 %16
w: dem Tod * * * *|um- fan * *|* gen,|mit * *|dem Tod um-|fa- * gen||
w: wir Gnad * * * *|er- lan * *|* gen,|daß * *|wir Gnad er-|la- * gen?||
 z4 c4 e8 || e8 g8 | g6 f2 e4 d4 | c4 B4 c4 x4- | x2 E2 F4 G8 | z4 E4 G8 | G4 A4 B4 x4- | %23
w: Das bist|Du, Herr,|al * * lei||* * ne.|Uns reu-|et un- ser Mis-|
w: |||||||
 x2 d2 e4 d8 | c8 z8 | z4 e8 e4 | d8 e8 | c6 d2 e4 x4- | x4 ^G2 ^F2 G8 | A8 B4 x4- | %30
w: * * se-|tat,|die Dich,|Herr, er-|zür * * net||hat, er- zür-|
w: |||||||
 x4 B2 A2 B4 c4 | F8 z4 x4- | x4 B4 c4 d4 | B4 c4 x8- | x8 z8 | c16 | c8 c8 | A8 _B8 | A8 z8 | %39
w: * * * net|hat, er-||* net hat.||Hei-|li- ger|Her- re|Gott,|
w: |||||||||
 c16 | c8 c8 | A8 _B8 | A8 z8 | e8 f8 | g8 g8 | f8 d8 | e8 z8 | a16 | g8 e8 | f8 g8 | e8 z8 | f16 | %52
w: hei-|li- ger,|star- ker|Gott,|hei- *|li- ger|Her- re|Gott,|hei-|li- ger,|star- ker|Gott,|hei-|
w: |||||||||||||
 e6 d2 c2 B2 x4- | x4 ^G2 ^F2 G8 | A8 x8- | x4 d4 c8 | z8 d8 | g12 f2 e2 | d4 e4 c4 d4 | B4 c4 A8 | %60
w: ||li- ger,||barm-|her- * *|* zi- ger Hei|* * land,|
w: ||||||||
 z8 c8 | d8 c8 | c8 x8- | x8 z8 | z4 d4 f8 | e8 d8 | c8 z4 f4 | f8 g8 | d8 x8- | x8 z4 x4- | %70
w: Du|e- wi-|ger Gott,||Du e-|wi- ger|Gott, Du|e- wi-|ger Gott,|laß|
w: ||||||||||
 x4 c4 d4 e4 | f4 e4 d8 | c4 e6 f2 g2 f2 | e2 d2 e4 d8 | B16 | e8 d8 | z4 e8 c4 | d4 d4 c4 B4 | %78
w: uns nicht ver-|sin- ken, laß|uns nicht * * *|* * * ver-|sin-|ken *|in des|bit- tern To- des|
w: ||||||||
 A8 z4 d4 | e6 d2 c4 A4 | B4 c4 A6 B2 | c8 z4 x4- | x4 B4 c4 A4 | B4 c4 d8 | e4 c4 d4 x4- | %85
w: Not, des|bit * * tern|To- des Not. *|* Ky-||* * ri~-|e~e * * lei-|
w: |||||||
 x4 d4 e8 | z8 z4 x4- | x4 G4 c4 c4 | B8 A8 | e8 d8 | c8 B6 c2 | d4 B4 B2 A2 x4- | x4 ^G4 c8 | %93
w: * son,|Chri-|ste~e- lei- i-|son, Ky-|rie~e- lei-|i- son, *|* Ky- ri * *|e~e- lei-|
w: ||||||||
 d4 c2 B2 x8- | x8 z8 | A8 x8- | x4 d4 c8 |"B" x16 |] %98
w: i- son, * *||e- lei|* i-||
w: |||||
V:3
"^C""^;""^ã" x8 | z16 | A,8 G,8 | A,8 B,8 | C8 C8 | B,16 |[M:4/2][K:treble-8] z4 A6 B2 x4- | %7
w: ||Mit- ten|wir im|Le- ben|sind,|mit * *|
w: ||Wen suchen|wir der|Hil- fe|tu,|wen * *|
 x4 B2 A2 G6 A2 | B4 c4 B8 | A16 | z16 | z16 | B8 c8 | G8 A8 | G4 E4 F8 |1 E16 :|2 E16 || z8 C8 | %18
w: ten * wir im|Le- * ben|sind|||mit dem|Tod um-|fan- * *|gen;|gen?|Das|
w: suchen * wir der|Hi- * fe|tu,|||daß wir|Gnad er-|la- * *||||
 E8 E8 | G8 G8 | E4 D2 C2 D8 | C16 | z8 z4 C4 | G8 G8 | A8 B8 | c8 c8 | B16 | A16 | z16 | z16 | %30
w: bist Du,|Herr, al-|lei- * * *|ne.|Uns|reu- et|un- ser|Mis- se-|tat,||||
w: ||||||||||||
 z16 | z4 B4 c8 | G8 A8 | G4 E4 F8 | E16 | A16 | G8 E8 | F8 G8 | E8 z8 | A16 | G8 E8 | F8 G8 | %42
w: |die Dich,|Herr, er-|zür- * net|hat.|Hei-|li- ger|Her- re|Gott,|hei-|li- ger,|star- ker|
w: ||||||||||||
 E16 | z8 c8 | d8 e8 | c8 B8 | c16 | z8 f8 | d8 c8 | d8 d8 |"^Ø" x16- | x16 | x16 | z16 | A16 | %55
w: Gott,|hei-|li- ger|Her- re|Gott,|hei-|li- ger,|star- ker|Gott,||||hei-|
w: |||||||||||||
 G8 A8 | B16 | c16 | B8 A8 | G8 F8 | E16 | D8 A8 | G8 F8 | E16 | z16 | z8 D8 | A8 d8 | c8 d8 | %68
w: li- ger|barm-|her-|zi- ger|Hei- *|land,|Du e-|wi- ger|Gott,||Du|e- wi-|ger Gott,|
w: |||||||||||||
 z4 A4 B4 x4- | x4 B2 A2 B8 | A8 z8 | z4 A8 ^G4 | A8 B8 | c8 A8 | G12 x4- | x4 D2 C2 G8 | C8 z8 | %77
w: Du e- wi|* * ger|Gott,|laß uns|nicht ver-|sin- *|||ken|
w: |||||||||
 z16 | z4 c8 B4 | G8 A8 | G8 F8 | E6 F2 G4 x4- | x4 G4 F8 | E8 z4 A4 | c8 B8 | A8 B8 | A8 z8 | %87
w: |in des|bit- tern|To- *||* des|Not. Ky-|rie~e- le-|i- son,||
w: ||||||||||
 D8 A8 | G8 F8 | E4 C4 D2 E2 F2 G2 | A4 A4 G4 G4 | F8 E8 | D8 A8 | G8 F8 |"E" x16- | x16 | x16 | %97
w: Chri- ste~e-|le- i-|son, * Ky * * *|* ri- e~e- le-|i- son,|Ky- rie~e-|le- i-|son.|||
w: ||||||||||
 x16 |] %98
w: |
w: |
V:4
"^E""^;""^ã" x8 | z16 | z16 | z8 D,8 | C,16 | D,8 E,8 |[M:4/2] F,8 F,8 | E,16 | z8 E,8 | F,12 C,4 | %10
w: |||Mit-|ten|wir im|Le- ben|sind|mit|dem *|
w: |||Wen|suchen|wir der|Hil- fe|tu,|daß|wir *|
 D,8 C,4 A,,4 | B,,8 A,,8 | E,8 z4 A,,2 B,,2 | C,2 D,2 E,8 D,4 | E,4 C,4 D,8 |1 A,,16 :|2 %16
w: Tod um- *|fan- gen,|* mit *|* * * dem|Tod um- fan-|gen;|
w: Gnad er- *|lan- gen,|* daß *|* * * wir|Gnad er- lan-||
 A,,8 z4 C,4 || E,8 E,8 | G,8 G,6 F,2 | E,4 D,4 C,4 B,,4 | C,4 A,,4 G,,8 | C,8 z4 C,4 | %22
w: gen? Das|bist Du,|Herr al *|* lei * *||ne. Uns|
w: ||||||
 G,4 F,4 E,4 E,4 | C,8 B,,8 | A,,4 A,8 ^G,4 | A,16 | z8 E,8 | F,8 C,4 D,4 | %28
w: reu * * et|un- *|ser Mis- se-|tat,|die|Dich, Herr, er-|
w: ||||||
 C,4 B,,2 A,,2 B,,4 B,,4 | A,,8 z4 E,4 | F,8 E,4 C,4 | D,8 C,4 A,,2 B,,2 | C,2 D,2 E,4 A,,4 D,4 | %33
w: zür * * * net|hat, die|Dich, Herr *|* er- zür *||
w: |||||
 E,4 C,4 D,8 | A,,16 | z8 A,,8 | C,8 C,8 | D,8 G,,8 | A,,16 | z8 F,,8 | C,8 C,8 | D,8 G,,8 | %42
w: * * net|hat.|Hei-|li- ger|Her- re|Gott,|hei-|li- ger,|star- ker|
w: |||||||||
 A,,16 | z8 A,8 | G,8 E,8 | F,8 G,8 | C,16 | z8 F,8 | G,8 A,8 | D,8 G,8 | C,8 z8 | F,16 | C,8 F,8 | %53
w: Gott,|hei-|li- ger|Her- re|Gott,|hei-|li- ger,|star- ker|Gott,|hei-|li- ger.|
w: |||||||||||
 E,16 | A,,4 A,,6 B,,2 C,2 D,2 | E,2 F,2 G,8 F,4 | G,4 E,4 D,8 | C,8 z4 F,4 | G,4 E,4 F,4 D,4 | %59
w: barm-|her- zi * * *||* ger Hei-|land, Du|e- * * *|
w: ||||||
 E,4 C,4 D,8 | A,,16 | z4 D,4 F,8 | C,8 D,8 | A,,16 | z16 | z16 | z8 D,8 | A,8 G,8 | F,8 x8- | %69
w: * wi- ger|Gott,|Du e-|wi- ger|Gott,|||Du|e- wi-|ger Gott,|
w: ||||||||||
 x8 z8 | z4 F,8 E,4 | D,4 C,4 B,,8 | A,,8 E,8 | C,8 D,8 | G,16 | z4 C8 B,4 | G,8 A,8 | %77
w: |laß uns|nicht * ver-|sin- *||ken|in des|bit- tern|
w: ||||||||
 G,6 F,2 E,8 | z4 F,4 G,8 | C,12 x4- | x4 C,4 D,8 | C,16 | z16 | z8 D,8 | A,8 G,8 | F,8 E,8 | %86
w: To- des Not,|des bit-|tern To|* des|Not||Ky-|rie~e- le-|i- son,|
w: |||||||||
 A,,4 D,8 C,4 | B,,8 A,,8 | z16 | z16 | A,,8 E,8 | D,8 C,8 | B,,8 z4 A,,4 | B,,4 C,4 D,8 | %94
w: Chri- ste~e- le-|i- son,|||Ky- rie~e-|le- i-|son, e-|le * i-|
w: ||||||||
 A,,8 z8 | A,,12 B,,4 | C,4 G,,4 A,,8 |"C" x16 |] %98
w: son,|Ky- ri-|e~e- le- i-||
w: ||||

